X:303
T: Mahnung
N: A0652
O: Europa, Mitteleuropa, Deutschland
N: Strassburger Hs.
R: Romanze, Ballade, Lied, religioeses Lied
M: 4/2
L: 1/4
K: D
D2D2D2 | A2A2=c2c2 | AG=F2z2
G2 | A2=cAc_BAG | =F4F2
F2 | GA_BAG=FD2 | D2A2G2
D2 | =F2=C2AGFE | D4D4 | z2

@@@ Tune index: 616
